22x22/panel/btsync-gui-paused.svg

<svg xmlns="http://www.w3.org/2000/svg" width="22" height="22" version="1.1">
 <defs>
  <style id="current-color-scheme" type="text/css">
   .ColorScheme-Text { color:#d3dae3; } .ColorScheme-Highlight { color:#4285f4; }
  </style>
 </defs>
 <g>
  <path style="fill:currentColor" class="ColorScheme-Text" d="m 11,3 c -4.4180497,0 -8,3.5819503 -8,8 0,4.41805 3.5819503,8 8,8 4.41805,0 8,-3.58195 8,-8 0,-4.4180497 -3.58195,-8 -8,-8 z m -3.75,2 3,0 C 10.537546,5.0008689 10.810795,5.1252673 11,5.3417969 11.189205,5.1252673 11.462454,5.0008689 11.75,5 l 3,0 c 0.552291,0 1,0.4477091 1,1 l 0,1.9140625 C 15.951002,8.1960657 16.135248,8.4924964 16.28125,8.8125 L 17.5,8.34375 l -1,3.46875 -0.75,-0.417969 0,1.408203 0.59375,0.228516 C 16.186748,13.407254 15.980003,13.749215 15.75,14.074219 L 15.75,16 c 0,0.552291 -0.447709,1 -1,1 l -3,0 C 11.46277,16.999636 11.189572,16.875943 11,16.660156 10.810428,16.875943 10.53723,16.999636 10.25,17 l -3,0 c -0.5522909,0 -1,-0.447709 -1,-1 l 0,-1.939453 C 6.0479977,13.775544 5.8627516,13.478254 5.71875,13.15625 L 4.5,13.595703 l 1,-3.375 0.75,0.402344 0,-1.3945314 L 5.65625,9 C 5.8092517,8.6179957 6.0179974,8.2704568 6.25,7.9394531 L 6.25,6 c 0,-0.5522909 0.4477091,-1 1,-1 z M 8,6 C 7.446,6 7,6.446 7,7 l 0,8 c 0,0.554 0.446,1 1,1 l 1,0 c 0.554,0 1,-0.446 1,-1 L 10,7 C 10,6.446 9.554,6 9,6 L 8,6 Z m 5,0 c -0.554,0 -1,0.446 -1,1 l 0,8 c 0,0.554 0.446,1 1,1 l 1,0 c 0.554,0 1,-0.446 1,-1 L 15,7 C 15,6.446 14.554,6 14,6 l -1,0 z"/>
 </g>
</svg>

<svg xmlns="http://www.w3.org/2000/svg" width="22" height="22"><defs><style id="current-color-scheme" type="text/css"></style></defs><path style="fill:currentColor;color:#d3dae3" d="M11 3a8 8 0 1 0 0 16 8 8 0 0 0 0-16zM7.25 5h3a1 1 0 0 1 .75.342A1 1 0 0 1 11.75 5h3a1 1 0 0 1 1 1v1.914c.201.282.385.578.531.899l1.219-.47-1 3.47-.75-.418v1.408l.594.228a5.43 5.43 0 0 1-.594 1.043V16a1 1 0 0 1-1 1h-3a1 1 0 0 1-.75-.34 1 1 0 0 1-.75.34h-3a1 1 0 0 1-1-1v-1.94a5.346 5.346 0 0 1-.531-.904l-1.219.44 1-3.375.75.402V9.229L5.656 9c.153-.382.362-.73.594-1.06V6a1 1 0 0 1 1-1zM8 6c-.554 0-1 .446-1 1v8c0 .554.446 1 1 1h1c.554 0 1-.446 1-1V7c0-.554-.446-1-1-1H8zm5 0c-.554 0-1 .446-1 1v8c0 .554.446 1 1 1h1c.554 0 1-.446 1-1V7c0-.554-.446-1-1-1h-1z"/></svg>
